src/images/svg/paperplane.svg

<svg width="86" height="34" viewBox="0 0 86 34" fill="none" xmlns="http://www.w3.org/2000/svg">
<path fill-rule="evenodd" clip-rule="evenodd" d="M20.4677 24.3134L81.7965 14.2733L26.7469 32.4788C26.398 32.5942 26.0149 32.4643 25.8081 32.1605L20.4677 24.3134Z" fill="url(#paint0_linear)"/>
<path d="M81.7965 14.2733L20.4677 24.3134M81.7965 14.2733L15.0855 8.43922M81.7965 14.2733L17.8731 7.70765M81.7965 14.2733L26.2577 1.42449M81.7965 14.2733L26.7469 32.4788M20.4677 24.3134L25.8081 32.1605M20.4677 24.3134L6.92203 26.531M1.84482 23.0053L14.3954 8.71598M1.84482 23.0053C1.48908 23.4104 1.61229 24.0423 2.09411 24.2841M1.84482 23.0053V23.0053C1.48908 23.4104 1.61229 24.0423 2.09411 24.2841V24.2841M14.3954 8.71598C14.5683 8.51917 14.8245 8.4164 15.0855 8.43922M14.3954 8.71598V8.71598C14.5683 8.51917 14.8245 8.4164 15.0855 8.43922V8.43922M17.8731 7.70765C17.0782 7.626 16.8543 6.57347 17.5472 6.17535M17.8731 7.70765V7.70765C17.0782 7.626 16.8543 6.57347 17.5472 6.17535V6.17535M17.5472 6.17535L25.6622 1.51272M25.6622 1.51272C25.8425 1.40916 26.0552 1.37764 26.2577 1.42449M25.6622 1.51272V1.51272C25.8425 1.40916 26.0552 1.37764 26.2577 1.42449V1.42449M26.7469 32.4788C26.398 32.5942 26.0149 32.4643 25.8081 32.1605M26.7469 32.4788V32.4788C26.398 32.5942 26.0149 32.4643 25.8081 32.1605V32.1605M6.92203 26.531C6.75079 26.559 6.57508 26.5322 6.42 26.4544M6.92203 26.531V26.531C6.75079 26.559 6.57508 26.5322 6.42 26.4544V26.4544M6.42 26.4544L2.09411 24.2841" stroke="white" stroke-width="2"/>
<defs>
<linearGradient id="paint0_linear" x1="37.8891" y1="-0.803606" x2="43.3685" y2="29.5688" gradientUnits="userSpaceOnUse">
<stop offset="0.625" stop-color="white" stop-opacity="0"/>
<stop offset="1" stop-color="white"/>
</linearGradient>
</defs>
</svg>

<svg width="86" height="34" fill="none" xmlns="http://www.w3.org/2000/svg"><path fill-rule="evenodd" clip-rule="evenodd" d="M20.468 24.313l61.328-10.04-55.05 18.206a.823.823 0 01-.938-.319l-5.34-7.847z" fill="url(#paint0_linear)"/><path d="M81.796 14.273l-61.328 10.04m61.328-10.04L15.087 8.44m66.71 5.834L17.873 7.708m63.923 6.565L26.258 1.424m55.538 12.85l-55.05 18.205m-6.278-8.166l5.34 7.848m-5.34-7.848L6.922 26.531m-5.077-3.526l12.55-14.289m-12.55 14.29a.823.823 0 00.25 1.278m-.25-1.279v0a.823.823 0 00.25 1.28v0m12.3-15.569c.173-.197.43-.3.69-.277m-.69.277v0c.173-.197.43-.3.69-.277v0m2.788-.731c-.795-.082-1.019-1.135-.326-1.533m.326 1.533v0c-.795-.082-1.019-1.135-.326-1.533v0m0 0l8.115-4.662m0 0a.823.823 0 01.596-.089m-.596.089v0a.823.823 0 01.596-.089v0m.489 31.055a.823.823 0 01-.939-.319m.939.319v0a.823.823 0 01-.939-.319v0M6.922 26.532a.823.823 0 01-.502-.077m.502.077v0a.823.823 0 01-.502-.077v0m0 0l-4.326-2.17" stroke="#fff" stroke-width="2"/><defs><linearGradient id="paint0_linear" x1="37.889" y1="-.804" x2="43.368" y2="29.569" gradientUnits="userSpaceOnUse"><stop offset=".625" stop-color="#fff" stop-opacity="0"/><stop offset="1" stop-color="#fff"/></linearGradient></defs></svg>
